X:3934
T:Maids of Mourne Shore? (Down by the Sally Gardens)
O:england
M:4/4
L:1/8
K:D
DE|F3E/2D/2E2FA|B4A2d2|B3A/2F/2E3D/2E/2|D6DE|F3E/2D/2E2FA|
B4A2dA|B3A/2F/2E3D/2E/2|D6A2|d2c>AB2d2|c3BA2FA|B2A>FABd2|
d6DE|F3E/2D/2E2FA|B4A2d2|B3A/2F/2E3D/2E/2|D6


